src/assets/calendar.svg

<svg fill="none" height="24" viewBox="0 0 24 24" width="24" xmlns="http://www.w3.org/2000/svg"><g fill="#343440"><path d="m6.24001 6.0768c-.1273 0-.24939-.05057-.33941-.14059s-.14059-.21211-.14059-.33941v-5.1168c0-.127304.05057-.249394.14059-.339411.09002-.0900177.21211-.140589.33941-.140589s.24939.0505713.33941.140589c.09002.090017.14059.212107.14059.339411v5.1168c0 .1273-.05057.24939-.14059.33941s-.21211.14059-.33941.14059z"/><path d="m22.3008 24h-20.5824c-.45066 0-.882859-.179-1.20152-.4977-.318662-.3186-.4976844-.7508-.4976844-1.2015v-18.03837c0-.22314.043951-.4441.1293434-.65025.085393-.20616.210555-.39348.368341-.55126.318661-.31867.75086-.49769 1.20152-.49769h20.5824c.2231 0 .4441.04395.6503.12935.2061.08539.3934.21055.5512.36834.1578.15778.283.3451.3684.55126.0853.20615.1293.42711.1293.65025v18.03837c0 .4507-.179.8829-.4977 1.2015-.3187.3187-.7509.4977-1.2015.4977zm-20.5824-20.47677c-.19605 0-.38407.07788-.5227.21651-.13862.13863-.216504.32664-.216504.52269v18.03837c.002487.1953.081164.3819.219254.52s.32467.2167.51995.2192h20.5824c.196 0 .3841-.0778.5227-.2165.1386-.1386.2165-.3266.2165-.5227v-18.03837c.0013-.09743-.017-.19413-.0536-.2844-.0367-.09026-.0911-.17227-.16-.24117s-.1509-.1233-.2412-.15999-.187-.05493-.2844-.05364z"/><path d="m23.52 9.03361h-23.04c-.127304 0-.249394-.05057-.339411-.14059-.0900177-.09002-.140589-.21211-.140589-.33941 0-.12731.0505713-.24939.140589-.33941.090017-.09002.212107-.14059.339411-.14059h23.04c.1273 0 .2494.05057.3394.14059s.1406.2121.1406.33941c0 .1273-.0506.24939-.1406.33941s-.2121.14059-.3394.14059z"/><path d="m17.76 6.0768c-.1273 0-.2494-.05057-.3394-.14059s-.1406-.21211-.1406-.33941v-5.1168c0-.127304.0506-.249394.1406-.339411.09-.0900177.2121-.140589.3394-.140589s.2494.0505713.3394.140589c.09.090017.1406.212107.1406.339411v5.1168c0 .1273-.0506.24939-.1406.33941s-.2121.14059-.3394.14059z"/><path d="m10.1204 12.6024c.4533 0 .84.08 1.16.24.3267.1533.5733.3633.74.63.1667.2666.25.5633.25.89 0 .3133-.0633.5933-.19.84-.12.24-.2767.4266-.47.56-.1867.1333-.38.2-.58.2v.02c.2533 0 .4833.0633.69.19.2133.1266.3833.3066.51.54.1267.2333.19.5033.19.81 0 .36-.1.6833-.3.97-.2.2866-.4833.51-.85.67-.36.16-.7767.24-1.25.24-1.19333 0-1.98333-.5334-2.37-1.6l.98-.47c.1.3866.26.6766.48.87.22.1866.53667.28.95.28.4 0 .7133-.0967.94-.29.2267-.2.34-.4634.34-.79 0-.36-.11-.6134-.33-.76-.2133-.1534-.5567-.23-1.03-.23h-.3v-.85h.27c.8267 0 1.24-.34 1.24-1.02 0-.3334-.0967-.5867-.29-.76-.1867-.1734-.4533-.26-.8-.26-.35333 0-.63667.0866-.85.26-.20667.1666-.34.4066-.4.72l-.98-.4c.14-.48.41-.85.81-1.11.40667-.26.88667-.39 1.44-.39zm6.1694.1v6.6h-1.05v-4.88c0-.2267.0033-.4034.01-.53-.2267.22-.4867.41-.78.57-.2867.16-.58.2733-.88.34l-.2-.93c.1733-.02.3966-.0934.67-.22.28-.1267.5433-.2767.79-.45.2466-.1734.4266-.34.54-.5z"/></g></svg>

<svg width="24" height="24" viewBox="0 0 24 24" fill="none" xmlns="http://www.w3.org/2000/svg">
<path d="M6.24001 6.0768C6.11271 6.0768 5.99062 6.02623 5.9006 5.93621C5.81058 5.84619 5.76001 5.7241 5.76001 5.5968V0.48C5.76001 0.352696 5.81058 0.230606 5.9006 0.140589C5.99062 0.0505713 6.11271 0 6.24001 0C6.36731 0 6.4894 0.0505713 6.57942 0.140589C6.66944 0.230606 6.72001 0.352696 6.72001 0.48V5.5968C6.72001 5.7241 6.66944 5.84619 6.57942 5.93621C6.4894 6.02623 6.36731 6.0768 6.24001 6.0768Z" fill="#343440"/>
<path d="M22.3008 24H1.7184C1.26774 24 0.835541 23.821 0.51688 23.5023C0.198218 23.1837 0.0191956 22.7515 0.0191956 22.3008V4.26243C0.0191956 4.03929 0.0631466 3.81833 0.148539 3.61218C0.233932 3.40602 0.359094 3.2187 0.51688 3.06092C0.835541 2.74225 1.26774 2.56323 1.7184 2.56323H22.3008C22.5239 2.56323 22.7449 2.60718 22.9511 2.69258C23.1572 2.77797 23.3445 2.90313 23.5023 3.06092C23.6601 3.2187 23.7853 3.40602 23.8707 3.61218C23.956 3.81833 24 4.03929 24 4.26243V22.3008C24 22.7515 23.821 23.1837 23.5023 23.5023C23.1836 23.821 22.7514 24 22.3008 24ZM1.7184 3.52323C1.52235 3.52323 1.33433 3.60111 1.1957 3.73974C1.05708 3.87837 0.979196 4.06638 0.979196 4.26243V22.3008C0.981683 22.4961 1.06036 22.6827 1.19845 22.8208C1.33654 22.9589 1.52312 23.0375 1.7184 23.04H22.3008C22.4968 23.04 22.6849 22.9622 22.8235 22.8235C22.9621 22.6849 23.04 22.4969 23.04 22.3008V4.26243C23.0413 4.165 23.023 4.0683 22.9864 3.97803C22.9497 3.88777 22.8953 3.80576 22.8264 3.73686C22.7575 3.66796 22.6755 3.61356 22.5852 3.57687C22.4949 3.54018 22.3982 3.52194 22.3008 3.52323H1.7184Z" fill="#343440"/>
<path d="M23.52 9.03361H0.48C0.352696 9.03361 0.230606 8.98304 0.140589 8.89302C0.0505713 8.803 0 8.68091 0 8.55361C0 8.4263 0.0505713 8.30422 0.140589 8.2142C0.230606 8.12418 0.352696 8.07361 0.48 8.07361H23.52C23.6473 8.07361 23.7694 8.12418 23.8594 8.2142C23.9494 8.30422 24 8.4263 24 8.55361C24 8.68091 23.9494 8.803 23.8594 8.89302C23.7694 8.98304 23.6473 9.03361 23.52 9.03361Z" fill="#343440"/>
<path d="M17.76 6.0768C17.6327 6.0768 17.5106 6.02623 17.4206 5.93621C17.3306 5.84619 17.28 5.7241 17.28 5.5968V0.48C17.28 0.352696 17.3306 0.230606 17.4206 0.140589C17.5106 0.0505713 17.6327 0 17.76 0C17.8873 0 18.0094 0.0505713 18.0994 0.140589C18.1894 0.230606 18.24 0.352696 18.24 0.48V5.5968C18.24 5.7241 18.1894 5.84619 18.0994 5.93621C18.0094 6.02623 17.8873 6.0768 17.76 6.0768Z" fill="#343440"/>
<path d="M10.1204 12.6024C10.5737 12.6024 10.9604 12.6824 11.2804 12.8424C11.6071 12.9957 11.8537 13.2057 12.0204 13.4724C12.1871 13.739 12.2704 14.0357 12.2704 14.3624C12.2704 14.6757 12.2071 14.9557 12.0804 15.2024C11.9604 15.4424 11.8037 15.629 11.6104 15.7624C11.4237 15.8957 11.2304 15.9624 11.0304 15.9624V15.9824C11.2837 15.9824 11.5137 16.0457 11.7204 16.1724C11.9337 16.299 12.1037 16.479 12.2304 16.7124C12.3571 16.9457 12.4204 17.2157 12.4204 17.5224C12.4204 17.8824 12.3204 18.2057 12.1204 18.4924C11.9204 18.779 11.6371 19.0024 11.2704 19.1624C10.9104 19.3224 10.4937 19.4024 10.0204 19.4024C8.82707 19.4024 8.03707 18.869 7.6504 17.8024L8.6304 17.3324C8.7304 17.719 8.8904 18.009 9.1104 18.2024C9.3304 18.389 9.64707 18.4824 10.0604 18.4824C10.4604 18.4824 10.7737 18.3857 11.0004 18.1924C11.2271 17.9924 11.3404 17.729 11.3404 17.4024C11.3404 17.0424 11.2304 16.789 11.0104 16.6424C10.7971 16.489 10.4537 16.4124 9.9804 16.4124H9.6804V15.5624H9.9504C10.7771 15.5624 11.1904 15.2224 11.1904 14.5424C11.1904 14.209 11.0937 13.9557 10.9004 13.7824C10.7137 13.609 10.4471 13.5224 10.1004 13.5224C9.74707 13.5224 9.46373 13.609 9.2504 13.7824C9.04373 13.949 8.9104 14.189 8.8504 14.5024L7.8704 14.1024C8.0104 13.6224 8.2804 13.2524 8.6804 12.9924C9.08707 12.7324 9.56707 12.6024 10.1204 12.6024ZM16.2898 12.7024V19.3024H15.2398V14.4224C15.2398 14.1957 15.2431 14.019 15.2498 13.8924C15.0231 14.1124 14.7631 14.3024 14.4698 14.4624C14.1831 14.6224 13.8898 14.7357 13.5898 14.8024L13.3898 13.8724C13.5631 13.8524 13.7864 13.779 14.0598 13.6524C14.3398 13.5257 14.6031 13.3757 14.8498 13.2024C15.0964 13.029 15.2764 12.8624 15.3898 12.7024H16.2898Z" fill="#343440"/>
</svg>
